;FLAVOR:Marlin
;TIME:1139
;Filament used: 1.4327m
;Layer height: 0.2
;MINX:93.6
;MINY:93.6
;MINZ:0.3
;MAXX:126.4
;MAXY:126.4
;MAXZ:19.9
;Generated with Cura_SteamEngine 4.3.0
M140 S75
M105
M190 S75
M104 S215
M105
M109 S215
M82 ;absolute extrusion mode
G28 ;Home
G1 Z15.0 F6000 ;Move the platform down 15mm
;Prime the extruder
G92 E0
G1 F200 E3
G92 E0
G92 E0
G92 E0
G1 F2400 E-8
;LAYER_COUNT:99
;LAYER:0
M107
G0 F3600 X95.533 Y95.435 Z0.3
;TYPE:SKIRT
G1 F2400 E0
G1 F1800 X96.071 Y94.964 E0.03567
G1 X96.659 Y94.556 E0.07138
G1 X97.288 Y94.216 E0.10705
G1 X97.952 Y93.949 E0.14276
G1 X98.641 Y93.757 E0.17844
G1 X99.347 Y93.643 E0.21412
G1 X99.83 Y93.612 E0.23827
G1 X100.151 Y93.603 E0.25429
G1 X100.33 Y93.6 E0.26322
G1 X119.293 Y93.6 E1.20929
G1 X119.385 Y93.601 E1.21388
G1 X120.083 Y93.611 E1.2487
G1 X120.796 Y93.661 E1.28436
G1 X121.5 Y93.79 E1.32007
G1 X122.184 Y93.998 E1.35574
G1 X122.841 Y94.28 E1.39141
G1 X123.463 Y94.634 E1.42711
G1 X124.041 Y95.055 E1.46279
G1 X124.569 Y95.538 E1.49849
G1 X125.039 Y96.076 E1.53413
G1 X125.447 Y96.664 E1.56984
G1 X125.786 Y97.294 E1.60553
G1 X126.053 Y97.957 E1.64119
G1 X126.244 Y98.647 E1.67691
G1 X126.357 Y99.353 E1.71258
G1 X126.388 Y99.83 E1.73642
G1 X126.397 Y100.15 E1.7524
G1 X126.4 Y100.33 E1.76138
G1 X126.4 Y119.343 E2.70994
G1 X126.391 Y120.07 E2.74621
G1 X126.342 Y120.784 E2.78192
G1 X126.214 Y121.488 E2.81762
G1 X126.008 Y122.173 E2.8533
G1 X125.727 Y122.83 E2.88895
G1 X125.374 Y123.453 E2.92468
G1 X124.954 Y124.032 E2.96036
G1 X124.472 Y124.56 E2.99603
G1 X123.935 Y125.032 E3.0317
G1 X123.347 Y125.44 E3.0674
G1 X122.718 Y125.781 E3.1031
G1 X122.055 Y126.049 E3.13878
G1 X121.366 Y126.241 E3.17446
G1 X120.66 Y126.356 E3.21015
G1 X120.17 Y126.388 E3.23465
G1 X119.849 Y126.397 E3.25067
G1 X119.67 Y126.4 E3.2596
G1 X100.707 Y126.4 E4.20567
G1 X100.624 Y126.399 E4.20981
G1 X99.926 Y126.39 E4.24464
G1 X99.213 Y126.341 E4.28029
G1 X98.509 Y126.213 E4.31599
G1 X97.824 Y126.007 E4.35168
G1 X97.167 Y125.725 E4.38735
G1 X96.545 Y125.372 E4.42303
G1 X95.966 Y124.952 E4.45871
G1 X95.437 Y124.47 E4.49442
G1 X94.966 Y123.932 E4.53009
G1 X94.558 Y123.345 E4.56576
G1 X94.218 Y122.715 E4.60147
G1 X93.95 Y122.052 E4.63715
G1 X93.758 Y121.363 E4.67283
G1 X93.644 Y120.657 E4.70851
G1 X93.611 Y120.164 E4.73316
G1 X93.602 Y119.831 E4.74978
G1 X93.6 Y119.658 E4.75841
G1 X93.6 Y100.674 E5.70553
G1 X93.601 Y100.587 E5.70987
G1 X93.61 Y99.922 E5.74305
G1 X93.659 Y99.209 E5.77871
G1 X93.788 Y98.505 E5.81441
G1 X93.995 Y97.821 E5.85007
G1 X94.277 Y97.163 E5.88578
G1 X94.63 Y96.541 E5.92146
G1 X95.05 Y95.963 E5.95711
G1 X95.533 Y95.435 E5.99281
G0 F3600 X95.924 Y95.614
G1 F1800 X96.458 Y95.173 E6.02736
G1 X97.039 Y94.796 E6.06191
G1 X97.659 Y94.488 E6.09645
G1 X98.311 Y94.254 E6.13101
G1 X98.985 Y94.097 E6.16554
G1 X99.841 Y94.011 E6.20846
G1 X100.162 Y94.002 E6.22448
G1 X100.33 Y94 E6.23286
G1 X119.293 Y94 E7.17893
G1 X119.379 Y94.001 E7.18322
G1 X120.077 Y94.011 E7.21805
G1 X120.768 Y94.06 E7.25261
G1 X121.448 Y94.19 E7.28715
G1 X122.109 Y94.396 E7.32169
G1 X122.742 Y94.678 E7.35626
G1 X123.338 Y95.03 E7.3908
G1 X123.889 Y95.449 E7.42533
G1 X124.389 Y95.929 E7.45991
G1 X124.83 Y96.463 E7.49446
G1 X125.207 Y97.044 E7.52902
G1 X125.514 Y97.665 E7.56358
G1 X125.747 Y98.317 E7.59812
G1 X125.904 Y98.991 E7.63265
G1 X125.989 Y99.841 E7.67527
G1 X125.998 Y100.161 E7.69124
G1 X126 Y100.33 E7.69967
G1 X126 Y119.338 E8.64798
G1 X125.991 Y120.065 E8.68425
G1 X125.942 Y120.756 E8.71882
G1 X125.814 Y121.437 E8.75339
G1 X125.609 Y122.098 E8.78791
G1 X125.329 Y122.731 E8.82244
G1 X124.977 Y123.328 E8.85702
G1 X124.56 Y123.881 E8.89157
G1 X124.081 Y124.381 E8.92612
G1 X123.548 Y124.823 E8.96067
G1 X122.967 Y125.201 E8.99525
G1 X122.347 Y125.509 E9.02978
G1 X121.696 Y125.744 E9.06431
G1 X121.021 Y125.902 E9.0989
G1 X120.159 Y125.989 E9.14212
G1 X119.838 Y125.998 E9.15815
G1 X119.67 Y126 E9.16653
G1 X100.63 Y126 E10.11644
G1 X99.932 Y125.991 E10.15126
G1 X99.241 Y125.942 E10.18582
G1 X98.56 Y125.813 E10.2204
G1 X97.899 Y125.608 E10.25493
G1 X97.266 Y125.327 E10.28948
G1 X96.669 Y124.976 E10.32403
G1 X96.117 Y124.558 E10.35858
G1 X95.617 Y124.079 E10.39312
G1 X95.175 Y123.545 E10.42771
G1 X94.798 Y122.965 E10.46222
G1 X94.49 Y122.344 E10.4968
G1 X94.255 Y121.693 E10.53133
G1 X94.098 Y121.018 E10.56591
G1 X94.011 Y120.153 E10.60928
G1 X94.002 Y119.82 E10.6259
G1 X94 Y119.658 E10.63398
G1 X94 Y100.674 E11.5811
G1 X94.001 Y100.593 E11.58514
G1 X94.01 Y99.928 E11.61832
G1 X94.059 Y99.237 E11.65288
G1 X94.187 Y98.557 E11.6874
G1 X94.394 Y97.895 E11.722
G1 X94.675 Y97.262 E11.75656
G1 X95.027 Y96.666 E11.79109
G1 X95.445 Y96.114 E11.82563
G1 X95.924 Y95.614 E11.86018
G0 F3600 X96.314 Y95.801
G1 F1800 X96.843 Y95.39 E11.8936
G1 X97.416 Y95.045 E11.92697
G1 X98.027 Y94.772 E11.96036
G1 X98.665 Y94.573 E11.9937
G1 X99.323 Y94.451 E12.02709
G1 X99.852 Y94.411 E12.05355
G1 X100.173 Y94.402 E12.06957
G1 X100.33 Y94.4 E12.07741
G1 X119.293 Y94.4 E13.02348
G1 X119.373 Y94.401 E13.02747
G1 X120.071 Y94.411 E13.06229
G1 X120.738 Y94.46 E13.09566
G1 X121.395 Y94.589 E13.12906
G1 X122.031 Y94.795 E13.16242
G1 X122.639 Y95.076 E13.19583
G1 X123.208 Y95.426 E13.22916
G1 X123.732 Y95.843 E13.26257
G1 X124.202 Y96.319 E13.29595
G1 X124.612 Y96.847 E13.3293
G1 X124.957 Y97.421 E13.36271
G1 X125.23 Y98.032 E13.3961
G1 X125.428 Y98.671 E13.42947
G1 X125.549 Y99.329 E13.46285
G1 X125.589 Y99.853 E13.48907
G1 X125.598 Y100.173 E13.50504
G1 X125.6 Y100.33 E13.51287
G1 X125.6 Y119.333 E14.46094
G1 X125.591 Y120.06 E14.49721
G1 X125.542 Y120.728 E14.53062
G1 X125.415 Y121.384 E14.56396
G1 X125.21 Y122.021 E14.59735
G1 X124.931 Y122.629 E14.63072
G1 X124.581 Y123.199 E14.66409
G1 X124.165 Y123.724 E14.69751
G1 X123.69 Y124.195 E14.73088
G1 X123.163 Y124.606 E14.76422
G1 X122.59 Y124.952 E14.79762
G1 X121.98 Y125.226 E14.83098
G1 X121.341 Y125.426 E14.86439
G1 X120.683 Y125.548 E14.89777
G1 X120.148 Y125.589 E14.92454
G1 X119.827 Y125.598 E14.94056
G1 X119.67 Y125.6 E14.9484
G1 X100.635 Y125.6 E15.89806
G1 X99.937 Y125.591 E15.93288
G1 X99.27 Y125.542 E15.96625
G1 X98.613 Y125.414 E15.99964
G1 X97.976 Y125.209 E16.03303
G1 X97.368 Y124.929 E16.06642
G1 X96.798 Y124.579 E16.0998
G1 X96.274 Y124.163 E16.13317
G1 X95.803 Y123.688 E16.16655
G1 X95.392 Y123.16 E16.19993
G1 X95.047 Y122.587 E16.2333
G1 X94.773 Y121.977 E16.26666
G1 X94.573 Y121.338 E16.30007
G1 X94.452 Y120.68 E16.33344
G1 X94.411 Y120.142 E16.36036
G1 X94.402 Y119.809 E16.37698
G1 X94.4 Y119.658 E16.38452
G1 X94.4 Y100.674 E17.33163
G1 X94.401 Y100.598 E17.33542
G1 X94.41 Y99.933 E17.3686
G1 X94.459 Y99.266 E17.40197
G1 X94.587 Y98.609 E17.43536
G1 X94.792 Y97.973 E17.4687
G1 X95.072 Y97.365 E17.5021
G1 X95.423 Y96.795 E17.53549
G1 X95.839 Y96.271 E17.56887
G1 X96.314 Y95.801 E17.60221
G0 F3600 X96.232 Y96.435
G1 F1800 X96.703 Y95.995 E17.63437
G1 X97.226 Y95.617 E17.66656
G1 X97.79 Y95.306 E17.69869
G1 X98.389 Y95.068 E17.73085
G1 X99.013 Y94.905 E17.76303
G1 X99.863 Y94.811 E17.80569
G1 X100.184 Y94.802 E17.82171
G1 X100.33 Y94.8 E17.829
G1 X119.293 Y94.8 E18.77507
G1 X119.367 Y94.801 E18.77876
G1 X120.065 Y94.811 E18.81358
G1 X120.708 Y94.86 E18.84576
G1 X121.34 Y94.988 E18.87793
G1 X121.951 Y95.194 E18.9101
G1 X122.532 Y95.473 E18.94225
G1 X123.074 Y95.822 E18.97441
G1 X123.568 Y96.236 E19.00657
G1 X124.008 Y96.708 E19.03876
G1 X124.386 Y97.23 E19.07092
G1 X124.696 Y97.795 E19.10307
G1 X124.934 Y98.394 E19.13523
G1 X125.096 Y99.018 E19.16739
G1 X125.189 Y99.864 E19.20985
G1 X125.198 Y100.184 E19.22582
G1 X125.2 Y100.33 E19.23311
G1 X125.2 Y119.328 E20.18092
G1 X125.191 Y120.055 E20.21719
G1 X125.143 Y120.698 E20.24936
G1 X125.016 Y121.33 E20.28152
G1 X124.811 Y121.942 E20.31372
G1 X124.533 Y122.523 E20.34586
G1 X124.185 Y123.066 E20.37803
G1 X123.772 Y123.561 E20.41019
G1 X123.301 Y124.001 E20.44235
G1 X122.779 Y124.38 E20.47453
G1 X122.215 Y124.691 E20.50667
G1 X121.616 Y124.93 E20.53884
G1 X120.993 Y125.094 E20.57098
G1 X120.137 Y125.189 E20.61395
G1 X119.816 Y125.198 E20.62997
G1 X119.67 Y125.2 E20.63726
G1 X100.64 Y125.2 E21.58667
G1 X99.942 Y125.191 E21.62149
G1 X99.299 Y125.142 E21.65367
G1 X98.667 Y125.015 E21.68583
G1 X98.056 Y124.81 E21.71798
G1 X97.475 Y124.532 E21.75011
G1 X96.932 Y124.183 E21.78232
G1 X96.437 Y123.77 E21.81448
G1 X95.997 Y123.299 E21.84664
G1 X95.618 Y122.777 E21.87882
G1 X95.307 Y122.213 E21.91095
G1 X95.069 Y121.614 E21.94311
G1 X94.906 Y120.99 E21.97528
G1 X94.811 Y120.131 E22.0184
G1 X94.802 Y119.798 E22.03502
G1 X94.8 Y119.658 E22.04201
G1 X94.8 Y100.604 E22.99261
G1 X94.809 Y99.939 E23.02579
G1 X94.858 Y99.296 E23.05797
G1 X94.986 Y98.664 E23.09014
G1 X95.191 Y98.053 E23.12229
G1 X95.47 Y97.472 E23.15444
G1 X95.819 Y96.929 E23.18665
G1 X96.232 Y96.435 E23.21877
G1 F2400 E15.21877
;MESH:Calibrate.STL
G0 F3600 X99.335 Y100.614
G0 X100.614 Y100.614
G0 X104.33 Y115.67
G0 X104.4 Y115.6
;TYPE:WALL-INNER
G1 F2400 E23.21877
G1 F1800 X115.6 Y115.6 E23.77754
G1 X115.6 Y104.4 E24.33631
G1 X104.4 Y104.4 E24.89508
G1 X104.4 Y115.6 E25.45385
G0 F3600 X104.33 Y115.67
G0 X100.67 Y119.33
G0 X100.6 Y119.4
G1 F1800 X100.6 Y100.6 E26.39179
G1 X119.4 Y100.6 E27.32973
G1 X119.4 Y119.4 E28.26766
G1 X100.6 Y119.4 E29.2056
G0 F3600 X100.2 Y119.8
;TYPE:WALL-OUTER
G1 F1800 X100.2 Y100.2 E30.18344
G1 X119.8 Y100.2 E31.16129
G1 X119.8 Y119.8 E32.13914
G1 X100.2 Y119.8 E33.11699
G0 F3600 X100.2 Y119.6
G0 X100.67 Y119.33
G0 X104.3 Y115.2
G0 X104.8 Y115.2
G1 F1800 X115.2 Y115.2 E33.63585
G1 X115.2 Y104.8 E34.1547
G1 X104.8 Y104.8 E34.67356
G1 X104.8 Y115.2 E35.19242
G0 F3600 X105 Y115.2
G0 X105 Y115.7
G0 X104.01 Y115.99
;TYPE:SKIN
G1 F1800 X115.99 Y115.99 E35.79011
G1 X115.99 Y104.01 E36.38779
G1 X104.01 Y104.01 E36.98547
G1 X104.01 Y115.99 E37.58316
G0 F3600 X100.99 Y119.01
G1 F1800 X100.99 Y100.99 E38.48218
G1 X119.01 Y100.99 E39.3812
G1 X119.01 Y119.01 E40.28022
G1 X100.99 Y119.01 E41.17925
G0 F3600 X101.37 Y118.629
G1 F1800 X101.658 Y118.629 E41.19361
G1 X101.369 Y118.339 E41.21404
G1 X101.369 Y117.774 E41.24223
G1 X102.224 Y118.629 E41.30255
G1 X102.789 Y118.629 E41.33074
G1 X101.369 Y117.208 E41.43096
G1 X101.369 Y116.642 E41.4592
G1 X103.355 Y118.629 E41.59936
G1 X103.921 Y118.629 E41.6276
G1 X101.369 Y116.077 E41.80766
G1 X101.369 Y115.511 E41.83589
G1 X104.487 Y118.629 E42.05589
G1 X105.052 Y118.629 E42.08407
G1 X101.369 Y114.945 E42.34396
G1 X101.369 Y114.38 E42.37215
G1 X105.618 Y118.629 E42.67194
G1 X106.184 Y118.629 E42.70018
G1 X103.924 Y116.369 E42.85963
G1 X104.49 Y116.369 E42.88787
G1 X106.749 Y118.629 E43.04729
G1 X107.315 Y118.629 E43.07553
G1 X105.056 Y116.369 E43.23495
G1 X105.621 Y116.369 E43.26314
G1 X107.881 Y118.629 E43.42259
G1 X108.446 Y118.629 E43.45078
G1 X106.187 Y116.369 E43.6102
G1 X106.753 Y116.369 E43.63844
G1 X109.012 Y118.629 E43.79786
G1 X109.578 Y118.629 E43.8261
G1 X107.319 Y116.369 E43.98552
G1 X107.884 Y116.369 E44.01371
G1 X110.143 Y118.629 E44.17313
G1 X110.709 Y118.629 E44.20136
G1 X108.45 Y116.369 E44.36078
G1 X109.016 Y116.369 E44.38902
G1 X111.275 Y118.629 E44.54844
G1 X111.84 Y118.629 E44.57663
G1 X109.581 Y116.369 E44.73605
G1 X110.147 Y116.369 E44.76429
G1 X112.406 Y118.629 E44.92371
G1 X112.972 Y118.629 E44.95194
G1 X110.713 Y116.369 E45.11136
G1 X111.278 Y116.369 E45.13955
G1 X113.538 Y118.629 E45.29901
G1 X114.103 Y118.629 E45.3272
G1 X111.844 Y116.369 E45.48662
G1 X112.41 Y116.369 E45.51485
G1 X114.669 Y118.629 E45.67427
G1 X115.235 Y118.629 E45.70251
G1 X112.975 Y116.369 E45.86197
G1 X113.541 Y116.369 E45.8902
G1 X115.8 Y118.629 E46.04962
G1 X116.366 Y118.629 E46.07786
G1 X114.107 Y116.369 E46.23728
G1 X114.672 Y116.369 E46.26547
G1 X116.932 Y118.629 E46.42492
G1 X117.497 Y118.629 E46.45311
G1 X115.238 Y116.369 E46.61253
G1 X115.804 Y116.369 E46.64077
G1 X118.063 Y118.629 E46.80019
G1 X118.629 Y118.629 E46.82843
G1 X116.369 Y116.369 E46.98788
G1 X116.369 Y115.803 E47.01612
G1 X118.629 Y118.064 E47.17561
G1 X118.629 Y117.498 E47.20385
G1 X116.369 Y115.237 E47.36334
G1 X116.369 Y114.672 E47.39153
G1 X118.629 Y116.932 E47.55098
G1 X118.629 Y116.367 E47.57917
G1 X116.369 Y114.106 E47.73866
G1 X116.369 Y113.54 E47.7669
G1 X118.629 Y115.801 E47.92639
G1 X118.629 Y115.235 E47.95463
G1 X116.369 Y112.975 E48.11408
G1 X116.369 Y112.409 E48.14232
G1 X118.629 Y114.67 E48.30181
G1 X118.629 Y114.104 E48.33005
G1 X116.369 Y111.843 E48.48954
G1 X116.369 Y111.278 E48.51773
G1 X118.629 Y113.538 E48.67718
G1 X118.629 Y112.973 E48.70537
G1 X116.369 Y110.712 E48.86486
G1 X116.369 Y110.146 E48.8931
G1 X118.629 Y112.407 E49.05259
G1 X118.629 Y111.841 E49.08083
G1 X116.369 Y109.581 E49.24028
G1 X116.369 Y109.015 E49.26852
G1 X118.629 Y111.275 E49.42798
G1 X118.629 Y110.71 E49.45616
G1 X116.369 Y108.449 E49.61565
G1 X116.369 Y107.883 E49.64389
G1 X118.629 Y110.144 E49.80338
G1 X118.629 Y109.578 E49.83162
G1 X116.369 Y107.318 E49.99108
G1 X116.369 Y106.752 E50.01931
G1 X118.629 Y109.013 E50.1788
G1 X118.629 Y108.447 E50.20704
G1 X116.369 Y106.186 E50.36653
G1 X116.369 Y105.621 E50.39472
G1 X118.629 Y107.881 E50.55418
G1 X118.629 Y107.316 E50.58236
G1 X116.369 Y105.055 E50.74185
G1 X116.369 Y104.489 E50.77009
G1 X118.629 Y106.75 E50.92958
G1 X118.629 Y106.184 E50.95782
G1 X116.369 Y103.924 E51.11728
G1 X116.369 Y103.63 E51.13194
G0 F3600 X101.369 Y101.369
G1 F1800 X101.935 Y101.37 E51.16018
G1 X104.195 Y103.629 E51.3196
G1 X104.76 Y103.629 E51.34779
G1 X102.501 Y101.37 E51.50717
G1 X103.067 Y101.37 E51.53541
G1 X105.326 Y103.629 E51.6948
G1 X105.892 Y103.629 E51.72303
G1 X103.632 Y101.37 E51.88245
G1 X104.198 Y101.37 E51.91069
G1 X106.457 Y103.629 E52.07008
G1 X107.023 Y103.629 E52.09831
G1 X104.764 Y101.37 E52.2577
G1 X105.329 Y101.37 E52.28589
G1 X107.589 Y103.629 E52.44531
G1 X108.154 Y103.629 E52.47349
G1 X105.895 Y101.37 E52.63288
G1 X106.461 Y101.37 E52.66112
G1 X108.72 Y103.629 E52.8205
G1 X109.286 Y103.629 E52.84874
G1 X107.026 Y101.37 E53.00816
G1 X107.592 Y101.37 E53.0364
G1 X109.851 Y103.629 E53.19578
G1 X110.417 Y103.629 E53.22402
G1 X108.158 Y101.37 E53.3834
G1 X108.724 Y101.37 E53.41164
G1 X110.983 Y103.629 E53.57103
G1 X111.548 Y103.629 E53.59922
G1 X109.289 Y101.37 E53.7586
G1 X109.855 Y101.37 E53.78684
G1 X112.114 Y103.629 E53.94622
G1 X112.68 Y103.629 E53.97446
G1 X110.421 Y101.37 E54.13385
G1 X110.986 Y101.37 E54.16203
G1 X113.245 Y103.629 E54.32142
G1 X113.811 Y103.629 E54.34966
G1 X111.552 Y101.37 E54.50904
G1 X112.118 Y101.37 E54.53728
G1 X114.377 Y103.629 E54.69666
G1 X114.943 Y103.629 E54.7249
G1 X112.683 Y101.37 E54.88432
G1 X113.249 Y101.37 E54.91256
G1 X115.508 Y103.629 E55.07194
G1 X116.074 Y103.629 E55.10018
G1 X113.815 Y101.37 E55.25957
G1 X114.38 Y101.37 E55.28775
G1 X118.629 Y105.619 E55.58754
G1 X118.629 Y105.053 E55.61578
G1 X114.946 Y101.37 E55.87564
G1 X115.512 Y101.37 E55.90387
G1 X118.629 Y104.487 E56.1238
G1 X118.629 Y103.922 E56.15198
G1 X116.077 Y101.37 E56.33204
G1 X116.643 Y101.37 E56.36028
G1 X118.629 Y103.356 E56.5004
G1 X118.629 Y102.79 E56.52864
G1 X117.209 Y101.37 E56.62883
G1 X117.774 Y101.37 E56.65702
G1 X118.629 Y102.225 E56.71734
G1 X118.629 Y101.659 E56.74558
G1 X118.34 Y101.37 E56.76597
G1 X118.629 Y101.37 E56.78039
G0 F3600 X101.369 Y101.369
G1 F1800 X103.629 Y103.629 E56.93984
G1 X103.63 Y104.195 E56.96808
G1 X101.369 Y101.935 E57.12757
G1 X101.369 Y102.5 E57.15576
G1 X103.63 Y104.761 E57.31529
G1 X103.63 Y105.327 E57.34352
G1 X101.369 Y103.066 E57.50305
G1 X101.369 Y103.632 E57.53129
G1 X103.63 Y105.892 E57.69078
G1 X103.63 Y106.458 E57.71902
G1 X101.369 Y104.197 E57.87854
G1 X101.369 Y104.763 E57.90678
G1 X103.63 Y107.024 E58.0663
G1 X103.63 Y107.589 E58.09449
G1 X101.369 Y105.329 E58.25398
G1 X101.369 Y105.894 E58.28217
G1 X103.63 Y108.155 E58.4417
G1 X103.63 Y108.721 E58.46993
G1 X101.369 Y106.46 E58.62946
G1 X101.369 Y107.026 E58.6577
G1 X103.63 Y109.286 E58.81719
G1 X103.63 Y109.852 E58.84543
G1 X101.369 Y107.591 E59.00495
G1 X101.369 Y108.157 E59.03319
G1 X103.63 Y110.418 E59.19272
G1 X103.63 Y110.983 E59.2209
G1 X101.369 Y108.723 E59.38039
G1 X101.369 Y109.289 E59.40863
G1 X103.63 Y111.549 E59.56812
G1 X103.63 Y112.115 E59.59636
G1 X101.369 Y109.854 E59.75589
